assets/logos/icons/login.svg

<svg height="16" viewBox="0 0 24 24" width="16" xmlns="http://www.w3.org/2000/svg"><path d="m10.1 11-2.60000002-2.60000002 1.4-1.40000001 4.90000002 4.90000003-4.90000002 4.9-1.4-1.4 2.49999997-2.4h-8v-2zm9.9 8.9999999v-15.99999995h-14.00000003v-2h14.00000003c1.1 0 2.0000001.9 2 2v15.99999995c.0000001 1.1000001-.9 2.0000002-2 2h-14.00000003v-2z" fill="#fff" fill-rule="evenodd"/></svg>

<svg xmlns="http://www.w3.org/2000/svg" xmlns:xlink="http://www.w3.org/1999/xlink" width="16" height="16" viewBox="0 0 24 24">
  <defs>
    <path id="login-a" d="M10.1,11 L7.49999998,8.39999998 L8.89999998,6.99999997 L13.8,11.9 L8.89999998,16.8 L7.49999998,15.4 L9.99999995,13 L1.99999995,13 L1.99999995,11 L10.1,11 Z M20,19.9999999 L20,3.99999995 L5.99999997,3.99999995 L5.99999997,1.99999995 L20,1.99999995 C21.1,1.99999995 22.0000001,2.89999995 22,3.99999995 L22,19.9999999 C22.0000001,21.1 21.1,22.0000001 20,21.9999999 L5.99999997,21.9999999 L5.99999997,19.9999999 L20,19.9999999 Z"/>
  </defs>
  <use fill="#FFFFFF" fill-rule="evenodd" xlink:href="#login-a"/>
</svg>
